static/images/pieces/shogi/cz/1UM.svg

<svg height="31.358999mm" viewBox="0 0 27.116999 31.358999" width="27.116999mm" xmlns="http://www.w3.org/2000/svg" xmlns:xlink="http://www.w3.org/1999/xlink"><linearGradient id="a" gradientTransform="matrix(-1 0 0 -1 -515.28864 66.619946)" gradientUnits="userSpaceOnUse" x1="-460.09558" x2="-460.09558" y1="58.427067" y2="133.82893"><stop offset="0" stop-color="#ffdba6"/><stop offset="1" stop-color="#f2c478"/></linearGradient><clipPath id="b"><path d="m0 2834.646h2834.646v-2834.646h-2834.646z" transform="translate(-461.11531 -1475.1781)"/></clipPath><g clip-path="url(#b)" stroke-miterlimit="10" transform="matrix(-.35277776 0 0 .35277776 5.888767 26.089585)"><path d="m0 0-21.223 7.255c-.337.115-.707.115-1.044 0l-21.223-7.255c-.512-.175-.879-.592-.956-1.088l-9.882-63.712c-.128-.823.569-1.559 1.477-1.559h31.106 31.106c.907 0 1.605.736 1.477 1.559l-9.883 63.712c-.076.496-.443.913-.955 1.088" fill="url(#a)"/><path d="m-52.851562-67.208984c-1.367537 0-2.528283 1.176762-2.316407 2.539062l9.88086 63.71289075c.128752.82936477.735951 1.49322613 1.521484 1.76171875l21.224609 7.2558594c.517057.1764437 1.07474.1764437 1.591797 0h.002l21.22260963-7.2558594c.78495737-.26829599 1.39165257-.93197308 1.51953127-1.76171875v-.001953l9.8828121-63.71093775c.21198-1.362964-.949363-2.539062-2.3164059-2.539062h-31.1054691zm0 1.701172h31.107421 31.1054691c.4469549 0 .6807389.293137.6367188.576171v.002l-9.88281253 63.7128441c-.02473099.1614023-.15215872.33060237-.390625.4121094l-21.22265637 7.2558594v-.00195c-.156942.053556-.337198.053556-.49414 0v.00195l-21.222657-7.2558594c-.238466-.081507-.365377-.2514283-.390625-.4140625l-9.882812-63.710937v-.002c-.04412-.283698.188257-.576171.636719-.576171z" fill="#4d3608"/></g><g fill="#f00"><path d="m15.642369 19.15811-.628386.132292q-.23151-.661459-.363802-1.289844l.694532-.165365q.03307.529167.297656 1.322917zm1.091407.231511-.661459-.231511q.231511-.859896.595313-1.620573l.661458.297656q-.264583.628386-.595312 1.554428zm-2.546616-.165365-.56224.198438q-.23151-.363802-.496094-1.157553l.595313-.23151q.132292.396875.463021 1.190625zm-1.91823-.859896.56224 1.025261-.56224.264583q-.297656-.429948-.595312-.992188zm1.587501 2.14974v.727605h1.951303v-.727605zm0 1.355991v.661458h1.951303v-.661458zm0 1.256771v.661459h1.951303v-.661459zm2.71198-3.505731v4.861721h-6.250784v-.694531h2.778127v-.661459h-2.348178v-.595313h2.348178v-.661458h-2.348178v-.628386h2.348178v-.727605h-3.04271q.03307-2.017448.198438-2.579688.06615-.363802.297656-.463021.396875-.231511 1.322917-.363802.03307.297656.297657.859896h-.793751q-.264583 0-.297656.09922-.132292.23151-.165365 1.785938h4.894794v-.231511z" stroke-width=".352777"/><path d="m10.394948 6.1625289 6.647656 6.7172471-.319705.316259-6.647656-6.7165573z" stroke-miterlimit="10" stroke-width=".352778"/><path d="m17.107619 11.680746v1.581988h-1.568207v-.449929h1.117588v-1.132059z" stroke-miterlimit="10" stroke-width=".352778"/><path d="m11.577994 6.0960105v.4499295h-1.117589v1.1320583h-.450619v-1.5819878z" stroke-miterlimit="10" stroke-width=".352778"/><path d="m16.722899 6.1627092.319705.3162596-6.647656 6.7172472-.319705-.316949z" stroke-miterlimit="10" stroke-width=".352778"/><path d="m17.107598 6.0956941v1.5826768h-.449929v-1.1320584h-1.118278v-.4506184z" stroke-miterlimit="10" stroke-width=".352778"/><path d="m10.459771 11.680374v1.132058h1.118278v.450619h-1.568208v-1.582677z" stroke-miterlimit="10" stroke-width=".352778"/><path d="m13.785299 7.1794963v5.0002117h-.450619v-5.0002117z" stroke-miterlimit="10" stroke-width=".352778"/><path d="m16.060206 9.4542351v.4506184h-5.000211v-.4506184z" stroke-miterlimit="10" stroke-width=".352778"/></g></svg>

<?xml version="1.0" encoding="UTF-8" standalone="no"?>
<!-- Created with Inkscape (http://www.inkscape.org/) -->

<svg
   width="27.116999mm"
   height="31.358999mm"
   viewBox="0 0 27.116999 31.358999"
   version="1.1"
   id="svg1"
   xmlns:xlink="http://www.w3.org/1999/xlink"
   xmlns="http://www.w3.org/2000/svg"
   xmlns:svg="http://www.w3.org/2000/svg">
  <defs
     id="defs1">
    <linearGradient
       xlink:href="#linearGradient22"
       id="linearGradient2"
       x1="-460.09558"
       y1="58.427067"
       x2="-460.09558"
       y2="133.82893"
       gradientUnits="userSpaceOnUse"
       gradientTransform="rotate(180,-257.64432,33.309973)" />
    <linearGradient
       id="linearGradient22">
      <stop
         style="stop-color:#ffdba6;stop-opacity:1;"
         offset="0"
         id="stop21" />
      <stop
         style="stop-color:#f2c478;stop-opacity:1;"
         offset="1"
         id="stop22" />
    </linearGradient>
    <clipPath
       clipPathUnits="userSpaceOnUse"
       id="clipPath1374">
      <path
         d="M 0,2834.646 H 2834.646 V 0 H 0 Z"
         transform="translate(-461.11531,-1475.1781)"
         id="path1374" />
    </clipPath>
  </defs>
  <g
     id="layer1">
    <g
       id="path1373"
       clip-path="url(#clipPath1374)"
       transform="matrix(-0.35277776,0,0,0.35277776,5.8887667,26.089585)">
      <path
         style="color:#000000;fill:url(#linearGradient2);stroke-miterlimit:10;-inkscape-stroke:none"
         d="m 0,0 -21.223,7.255 c -0.337,0.115 -0.707,0.115 -1.044,0 L -43.49,0 c -0.512,-0.175 -0.879,-0.592 -0.956,-1.088 L -54.328,-64.8 c -0.128,-0.823 0.569,-1.559 1.477,-1.559 h 31.106 31.106 c 0.907,0 1.605,0.736 1.477,1.559 L 0.955,-1.088 C 0.879,-0.592 0.512,-0.175 0,0"
         id="path12" />
      <path
         style="color:#000000;fill:#4d3608;stroke-miterlimit:10;-inkscape-stroke:none"
         d="m -52.851562,-67.208984 c -1.367537,0 -2.528283,1.176762 -2.316407,2.539062 l 9.88086,63.71289075 c 0.128752,0.82936477 0.735951,1.49322613 1.521484,1.76171875 l 21.224609,7.2558594 c 0.517057,0.1764437 1.07474,0.1764437 1.591797,0 h 0.002 L 0.27539063,0.8046875 C 1.060348,0.53639151 1.6670432,-0.12728558 1.7949219,-0.95703125 v -0.001953 L 11.677734,-64.669922 c 0.21198,-1.362964 -0.949363,-2.539062 -2.3164059,-2.539062 H -21.744141 Z m 0,1.701172 h 31.107421 31.1054691 c 0.4469549,0 0.6807389,0.293137 0.6367188,0.576171 v 0.002 L 0.11523437,-1.2167969 c -0.02473099,0.1614023 -0.15215872,0.33060237 -0.390625,0.4121094 L -21.498047,6.4511719 v -0.00195 c -0.156942,0.053556 -0.337198,0.053556 -0.49414,0 v 0.00195 l -21.222657,-7.2558594 c -0.238466,-0.081507 -0.365377,-0.2514283 -0.390625,-0.4140625 l -9.882812,-63.710937 v -0.002 c -0.04412,-0.283698 0.188257,-0.576171 0.636719,-0.576171 z"
         id="path13" />
    </g>
    <path
       style="fill:#ff0000;stroke-width:0.352777"
       d="m 15.642369,19.15811 -0.628386,0.132292 q -0.23151,-0.661459 -0.363802,-1.289844 l 0.694532,-0.165365 q 0.03307,0.529167 0.297656,1.322917 z m 1.091407,0.231511 -0.661459,-0.231511 q 0.231511,-0.859896 0.595313,-1.620573 l 0.661458,0.297656 q -0.264583,0.628386 -0.595312,1.554428 z m -2.546616,-0.165365 -0.56224,0.198438 q -0.23151,-0.363802 -0.496094,-1.157553 l 0.595313,-0.23151 q 0.132292,0.396875 0.463021,1.190625 z m -1.91823,-0.859896 0.56224,1.025261 -0.56224,0.264583 q -0.297656,-0.429948 -0.595312,-0.992188 z m 1.587501,2.14974 v 0.727605 h 1.951303 V 20.5141 Z m 0,1.355991 v 0.661458 h 1.951303 v -0.661458 z m 0,1.256771 v 0.661459 h 1.951303 v -0.661459 z m 2.71198,-3.505731 v 4.861721 h -6.250784 v -0.694531 h 2.778127 v -0.661459 h -2.348178 v -0.595313 h 2.348178 v -0.661458 h -2.348178 v -0.628386 h 2.348178 V 20.5141 h -3.04271 q 0.03307,-2.017448 0.198438,-2.579688 0.06615,-0.363802 0.297656,-0.463021 0.396875,-0.231511 1.322917,-0.363802 0.03307,0.297656 0.297657,0.859896 h -0.793751 q -0.264583,0 -0.297656,0.09922 -0.132292,0.23151 -0.165365,1.785938 h 4.894794 v -0.231511 z"
       id="text1374"
       aria-label="馬" />
    <path
       style="color:#000000;fill:#ff0000;stroke-width:0.352778;stroke-miterlimit:10;-inkscape-stroke:none"
       d="m 10.394948,6.1625289 6.647656,6.7172471 -0.319705,0.316259 -6.647656,-6.7165573 z"
       id="path1375" />
    <path
       style="color:#000000;fill:#ff0000;stroke-width:0.352778;stroke-miterlimit:10;-inkscape-stroke:none"
       d="m 17.107619,11.680746 v 1.581988 H 15.539412 V 12.812805 H 16.657 v -1.132059 z"
       id="path1377" />
    <path
       style="color:#000000;fill:#ff0000;stroke-width:0.352778;stroke-miterlimit:10;-inkscape-stroke:none"
       d="M 11.577994,6.0960105 V 6.54594 H 10.460405 V 7.6779983 H 10.009786 V 6.0960105 Z"
       id="path1379" />
    <path
       style="color:#000000;fill:#ff0000;stroke-width:0.352778;stroke-miterlimit:10;-inkscape-stroke:none"
       d="m 16.722899,6.1627092 0.319705,0.3162596 -6.647656,6.7172472 -0.319705,-0.316949 z"
       id="path1381" />
    <path
       style="color:#000000;fill:#ff0000;stroke-width:0.352778;stroke-miterlimit:10;-inkscape-stroke:none"
       d="M 17.107598,6.0956941 V 7.6783709 H 16.657669 V 6.5463125 H 15.539391 V 6.0956941 Z"
       id="path1383" />
    <path
       style="color:#000000;fill:#ff0000;stroke-width:0.352778;stroke-miterlimit:10;-inkscape-stroke:none"
       d="m 10.459771,11.680374 v 1.132058 h 1.118278 v 0.450619 h -1.568208 v -1.582677 z"
       id="path1385" />
    <path
       style="color:#000000;fill:#ff0000;stroke-width:0.352778;stroke-miterlimit:10;-inkscape-stroke:none"
       d="M 13.785299,7.1794963 V 12.179708 H 13.33468 V 7.1794963 Z"
       id="path1411" />
    <path
       style="color:#000000;fill:#ff0000;stroke-width:0.352778;stroke-miterlimit:10;-inkscape-stroke:none"
       d="M 16.060206,9.4542351 V 9.9048535 H 11.059995 V 9.4542351 Z"
       id="path1413" />
  </g>
</svg>
